X: 140
T: Gene Preston's Flute [jig]
N: 070116
C: BB
N: revised 1/8/07
R: jig
Q: 340
M: 6/8
L: 1/8
K: G
"G"GFG dcB|"G"dcB "C"efg|"G"GFG dcB|"Am7"ABG "D"FED|
"G"GFG dcB|"G"dcB "C"efg|"G"b2g "D"a2f|"G"ged B2A :|
"G"DGG dGG|"C"eGG "G"dGG|"A"EAA ^cAA|"A"eAA ^cAA|
"D"Fdd fdd|"D"add fdd|"G"gfe dcB|1 "Am7"ABG "D"FED :|\
[2 "D" AFA "G"G3 ||
%%%%%%%%%%%%%%%%%%%%%%%%%%%%%%%%%%%%%%%%%%%
